2 Export/Icons/Rounded/Mail.svg

<svg xmlns="http://www.w3.org/2000/svg" xmlns:xlink="http://www.w3.org/1999/xlink" width="24" height="24" viewBox="0 0 24 24">
  <defs>
    <path id="mail-a" d="M20 4H4c-1.1 0-1.99.9-1.99 2L2 18c0 1.1.9 2 2 2h16c1.1 0 2-.9 2-2V6c0-1.1-.9-2-2-2zm-.4 4.25l-7.07 4.42c-.32.2-.74.2-1.06 0L4.4 8.25a.85.85 0 1 1 .9-1.44L12 11l6.7-4.19a.85.85 0 1 1 .9 1.44z"/>
  </defs>
  <g fill="none" fill-rule="evenodd">
    <polygon points="0 0 24 0 24 24 0 24"/>
    <mask id="mail-b" fill="#fff">
      <use xlink:href="#mail-a"/>
    </mask>
    <use fill="#000" xlink:href="#mail-a"/>
    <g fill="#000" mask="url(#mail-b)">
      <rect width="24" height="24"/>
    </g>
  </g>
</svg>

<svg xmlns="http://www.w3.org/2000/svg" xmlns:xlink="http://www.w3.org/1999/xlink" width="24" height="24" viewBox="0 0 24 24">
  <defs>
    <path id="mail-a" d="M20,4 L4,4 C2.9,4 2.01,4.9 2.01,6 L2,18 C2,19.1 2.9,20 4,20 L20,20 C21.1,20 22,19.1 22,18 L22,6 C22,4.9 21.1,4 20,4 Z M19.6,8.25 L12.53,12.67 C12.21,12.87 11.79,12.87 11.47,12.67 L4.4,8.25 C4.15,8.09 4,7.82 4,7.53 C4,6.86 4.73,6.46 5.3,6.81 L12,11 L18.7,6.81 C19.27,6.46 20,6.86 20,7.53 C20,7.82 19.85,8.09 19.6,8.25 Z"/>
  </defs>
  <g fill="none" fill-rule="evenodd">
    <polygon points="0 0 24 0 24 24 0 24"/>
    <mask id="mail-b" fill="#fff">
      <use xlink:href="#mail-a"/>
    </mask>
    <use fill="#000" xlink:href="#mail-a"/>
    <g fill="#000" mask="url(#mail-b)">
      <rect width="24" height="24"/>
    </g>
  </g>
</svg>
